public/resources/images/svg/logo-black.svg

<svg width="45" height="32" viewBox="0 0 45 32" fill="none" xmlns="http://www.w3.org/2000/svg">
<g clip-path="url(#clip0_3832_79166)">
<path d="M0.589382 22.8945C0.855855 20.3398 1.72742 18.3523 2.79273 17.728H2.81717C4.60858 16.6493 6.98182 16.0815 9.49993 16.1385V15.8545C6.98182 15.8545 4.60858 15.2867 2.81717 14.265H2.79273C1.70298 13.5837 0.855855 11.5962 0.589382 9.09848V9.04029C0.306618 6.46168 0.107055 3.36815 0 -0.00115967H11.8767C16.2065 -0.00115967 19.7167 3.58051 19.7167 7.99884C19.7167 12.4166 16.2065 15.9988 11.8767 15.9988L22.0294 31.9988H0.016875C0.126839 28.6243 0.321746 25.5308 0.589382 22.9498V22.8945Z" fill="#191F28"/>
<path d="M36.5103 16H34.1975C38.5274 16 42.0375 12.4177 42.0375 8C42.0375 3.58168 38.5274 3.32925e-06 34.1975 3.32925e-06H22.3447C22.4547 3.36931 22.649 6.46284 22.9167 9.04146V9.09964C23.1831 11.6544 24.0308 13.6413 25.12 14.2662H25.1444C26.9364 15.3449 29.3091 15.9122 31.8272 15.8557V16.1396C29.3091 16.1396 26.9364 16.7069 25.1444 17.7292H25.1212C24.032 18.3535 23.1843 20.341 22.9178 22.8957V22.9539C22.6351 25.5348 22.4349 28.6301 22.3284 32.0029H36.5114C40.8413 32.0029 44.3514 28.4207 44.3514 24.0029C44.3503 19.5817 40.8401 16 36.5103 16Z" fill="#191F28"/>
</g>
<defs>
<clipPath id="clip0_3832_79166">
<rect width="44.3503" height="32" fill="white"/>
</clipPath>
</defs>
</svg>

<svg width="45" height="32" fill="none" xmlns="http://www.w3.org/2000/svg"><g clip-path="url(#clip0_3832_79166)" fill="#191F28"><path d="M.59 22.895c.266-2.555 1.137-4.543 2.203-5.167h.024c1.792-1.079 4.165-1.647 6.683-1.59v-.284c-2.518 0-4.891-.567-6.683-1.589h-.024C1.703 13.584.856 11.596.589 9.098V9.04C.307 6.462.107 3.368 0 0h11.877c4.33 0 7.84 3.582 7.84 8s-3.51 8-7.84 8l10.152 16H.017c.11-3.375.305-6.468.572-9.05v-.055zM36.51 16h-2.313c4.33 0 7.84-3.582 7.84-8s-3.51-8-7.84-8H22.345c.11 3.37.304 6.463.572 9.041V9.1c.266 2.554 1.114 4.541 2.203 5.166h.024c1.792 1.079 4.165 1.646 6.683 1.59v.284c-2.518 0-4.89.567-6.683 1.59h-.023c-1.089.623-1.937 2.611-2.203 5.166v.058c-.283 2.58-.483 5.676-.59 9.049h14.183c4.33 0 7.84-3.582 7.84-8 0-4.421-3.51-8.003-7.84-8.003z"/></g><defs><clipPath id="clip0_3832_79166"><path fill="#fff" d="M0 0h44.35v32H0z"/></clipPath></defs></svg>
